resources/icons/20px/small-info-sign.svg

<svg width="20" height="20" viewBox="0 0 20 20" fill="none" xmlns="http://www.w3.org/2000/svg">
<path fill-rule="evenodd" clip-rule="evenodd" d="M17 10C17 13.866 13.866 17 10 17C6.13401 17 3 13.866 3 10C3 6.13401 6.13401 3 10 3C13.866 3 17 6.13401 17 10ZM11 5V7H9V5H11ZM11 8V14H12V15H8V14H9V9H8V8H11Z" fill="black"/>
</svg>

<svg xmlns="http://www.w3.org/2000/svg" viewBox="0 0 20 20">
  <path d="M17 10a7 7 0 1 1-14 0 7 7 0 0 1 14 0m-6-5v2H9V5zm0 3v6h1v1H8v-1h1V9H8V8z"/>
</svg>
